assets/Shield/Flat/shield_flat.svg

<svg width="32" height="32" viewBox="0 0 32 32" fill="none" xmlns="http://www.w3.org/2000/svg">
<path d="M12.0955 2.00006C11.3976 1.98479 10.7193 2.23248 10.1955 2.69402C9.35852 3.44402 9.47151 4.16102 8.72451 5.21502C8.51573 5.55185 8.24017 5.84237 7.91475 6.06854C7.58934 6.29471 7.22102 6.4518 6.83254 6.53008L6.80355 6.53704C6.2786 6.68227 5.81167 6.98694 5.46737 7.40899C5.12307 7.83104 4.91839 8.34958 4.88155 8.893C4.23255 13.982 5.98151 21.8931 10.2035 26.2241C11.3554 27.3166 12.611 28.2941 13.9525 29.143C15.3322 29.6195 16.8318 29.6195 18.2115 29.143C19.5677 28.3047 20.8315 27.3252 21.9816 26.221C26.0686 22.029 27.9655 14.0831 27.3035 8.89007C27.272 8.33987 27.0659 7.81407 26.715 7.38909C26.3641 6.96412 25.8869 6.6621 25.3526 6.52703C24.9641 6.44875 24.5957 6.29166 24.2703 6.06549C23.9449 5.83931 23.6694 5.54892 23.4606 5.21209C22.7846 4.25809 22.7935 3.4121 21.9895 2.6911C21.4657 2.22955 20.7875 1.98174 20.0895 1.997L12.0955 2.00006Z" fill="#E6E6E6"/>
<path d="M20.0089 3.5H16L12.7858 15.9188L16 28.5C18 28.5 18 28 20 26.5C20 26.5 26.5 22 26 9.5C26 9.5 26.0024 8.25 25 8C22.5 7.5 21.5 4.5 21.5 4.5C21.368 4.16593 21 3.5 20.0089 3.5Z" fill="#AEDDFF"/>
<path d="M12.0186 3.5H16.0275V28.5C14.0275 28.5 14.0275 28 12.0275 26.5C12.0275 26.5 5.52747 22 6.02747 9.5C6.02747 9.5 6.02505 8.25 7.02747 8C9.52747 7.5 10.5275 4.5 10.5275 4.5C10.6594 4.16593 11.0275 3.5 12.0186 3.5Z" fill="#00A6ED"/>
</svg>

<svg xmlns="http://www.w3.org/2000/svg" width="32" height="32" fill="none"><path fill="#E6E6E6" d="M12.095 2a2.782 2.782 0 0 0-1.9.694c-.836.75-.723 1.467-1.47 2.521A2.9 2.9 0 0 1 6.833 6.53l-.03.007a2.63 2.63 0 0 0-1.921 2.356c-.65 5.089 1.1 13 5.322 17.331a24.435 24.435 0 0 0 3.748 2.919c1.38.476 2.88.476 4.26 0a22.606 22.606 0 0 0 3.77-2.922c4.087-4.192 5.983-12.138 5.322-17.33a2.59 2.59 0 0 0-1.951-2.364 2.9 2.9 0 0 1-1.892-1.315c-.676-.954-.667-1.8-1.471-2.52a2.782 2.782 0 0 0-1.9-.695L12.095 2Z"/><path fill="#AEDDFF" d="M20.009 3.5H16l-3.214 12.419L16 28.5c2 0 2-.5 4-2 0 0 6.5-4.5 6-17 0 0 .002-1.25-1-1.5-2.5-.5-3.5-3.5-3.5-3.5-.132-.334-.5-1-1.491-1Z"/><path fill="#00A6ED" d="M12.019 3.5h4.008v25c-2 0-2-.5-4-2 0 0-6.5-4.5-6-17 0 0-.002-1.25 1-1.5 2.5-.5 3.5-3.5 3.5-3.5.132-.334.5-1 1.492-1Z"/></svg>
